X: 4079
T: The WISE MAID
R: Reel.
%R: reel
B: James Kerr "Merry Melodies" v.4 p.11 #79
Z: 2016 John Chambers <jc:trillian.mit.edu>
M: C|
L: 1/8
K: D
|:\
D2(3(FED) (AD) (3(FED) | D2 (3(FED) EGFE |\
D2(3(FED) (AD) (3(FED) | G2(BG) EFGE ::\
(3(ABA) (FA) (3(ABA) (FA) | (3(ABA) (FD) (EF)(GE) |\
(3(ABA) FA (dA)FA | GEFD EFGE :|
|:\
e2(ge) bege | e2(ge) fagf |\
e2(ge) bege | b2(ge) fagf ::\
d2(cA) BcBA | dBcA EFGE |\
d2(cA) BcBA | GEFD EFGE :|

%%sep 1 1 500
%%sep 1 1 500

